X: 11934
T: Empty Tea Cup
R: slip jig
M: 9/8
K: Dmajor
|:"D"f2 e d^cd efg|afd afd a2 f|"C"ge=c Ace fge|ge=c Ace fge|
"D"f2 e d^cd efg|afd afd a2 f|"C"ge=c Ace fge|ge=c ABc "D"d3:|
|:"D"d2 ^c A2 B =cBA|d2 ^c ABc def|"C"ge=c Ace fge|ge=c Ace fge|
"D"d2 ^c A2 B =cBA|d2 ^c ABc def|"C"ge=c Ace fge|ge=c ABc "D"d3:|

